Suru++-Ubuntu/mimetypes/scalable/image-x-compressed-xcf.svg

<svg width="256" height="256" version="1.1" viewBox="0 0 67.73 67.73" xmlns="http://www.w3.org/2000/svg" xmlns:xlink="http://www.w3.org/1999/xlink">
 <defs>
  <linearGradient id="linearGradient4226" x1="529.655" x2="-35.31" y1="401.584" y2="119.093" gradientTransform="matrix(0 -.11988932 .11988589 0 .36277965 292.5483)" gradientUnits="userSpaceOnUse">
   <stop style="stop-color:#f2f2f2" offset="0"/>
   <stop style="stop-color:#f9f9f9" offset="1"/>
  </linearGradient>
  <linearGradient id="linearGradient4358" x1="88" x2="488" y1="88" y2="488" gradientUnits="userSpaceOnUse">
   <stop style="stop-color:#000000;stop-opacity:.58823532" offset="0"/>
   <stop style="stop-color:#000000;stop-opacity:0" offset=".88"/>
   <stop style="stop-color:#000000" offset="1"/>
  </linearGradient>
  <filter id="filter4346" x="-.01" y="-.01" width="1.026" height="1.022" style="color-interpolation-filters:sRGB">
   <feGaussianBlur stdDeviation="2.12"/>
  </filter>
  <linearGradient id="linearGradient4351" x1="32.35" x2="21.213" y1="28.083" y2="30.293" gradientTransform="matrix(1.3344393,0,0,1.3344393,-3.3690755,227.10065)" gradientUnits="userSpaceOnUse">
   <stop offset="0"/>
   <stop style="stop-opacity:0" offset="1"/>
  </linearGradient>
 </defs>
 <g transform="translate(0,-229.26665)">
  <path d="m20.705011 233.28164c-9.338925 0-10.343783 0.95922-10.298013 10.31704v38.63259c-0.04577 9.35781 0.959088 10.31704 10.298013 10.31704h25.970643c9.338924 0 10.298012-0.95912 10.298012-10.31704v-38.63259c0-9.35793-0.959088-10.31704-10.298012-10.31704z" style="fill:none;opacity:.2;stroke-width:1.0583333;stroke:#000000"/>
  <path transform="matrix(.13229167 0 0 .13229167 -4.4096684 223.75664)" d="m189.84323 74c-70.59344 0-78.18921 7.250835-77.84323 77.98706v292.02588c-0.34598 70.73623 7.24979 77.98706 77.84323 77.98706h196.31354c70.59344 0 76.00668-7.27384 77.84323-77.98706v-292.02588c0-70.737067-7.24979-77.98706-77.84323-77.98706z" style="filter:url(#filter4346);opacity:.1"/>
  <path transform="matrix(.13229167 0 0 .13229167 -4.4096684 223.75664)" d="m189.84323 74c-70.59344 0-78.18921 7.250835-77.84323 77.98706v292.02588c-0.34598 70.73623 7.24979 77.98706 77.84323 77.98706h196.31354c70.59344 0 77.84323-7.24999 77.84323-77.98706v-292.02588c0-70.737067-7.24979-77.98706-77.84323-77.98706z" style="fill:url(#linearGradient4358);filter:url(#filter4380);opacity:.3"/>
  <path d="m20.705011 233.28164c-9.338925 0-10.343783 0.95922-10.298013 10.31704v38.63259c-0.04577 9.35781 0.959088 10.31704 10.298013 10.31704h25.970643c9.338924 0 10.298012-0.95912 10.298012-10.31704v-38.63259c0-9.35793-0.959088-10.31704-10.298012-10.31704z" style="fill:url(#linearGradient4226)"/>
  <path d="m20.705079 233.28164c-9.338926 0-10.343851 0.95939-10.298081 10.3172v0.52916c-0.04577-9.35781 0.959155-10.3172 10.298081-10.3172h25.970506c9.338927 0 10.298081 0.95928 10.298081 10.3172v-0.52916c0-9.35793-0.959154-10.3172-10.298081-10.3172z" style="fill:#ffffff;opacity:.6"/>
  <path d="m41.098666 292.54831 15.875-15.875v5.94886c-0.01384 8.99472-1.006126 9.92614-10.100231 9.92614z" style="fill:#ffffff;opacity:.4"/>
  <g transform="matrix(.55808669 0 0 .55808669 14.310677 117.81711)">
   <path d="m12.380846 240.52258s4.199679 9.08985 14.024561 8.83344c20.589272-0.5419 24.199706-11.81532 24.716248-13.44185 0.51652-1.62648 1.306923-1.3801 1.489653 0.1229 6.715072 63.97564-46.601651 36.52631-48.495172 25.62997 10.589156-3.25302 8.1686758-6.97326 8.1686758-6.97326z" style="fill-rule:evenodd;fill:#60594c"/>
   <path transform="matrix(.26458333 0 0 .26458333 0 229.26666)" d="m113.9668 74.640625a26.371084 28.367858 0 0 0-22.789066 14.148437 23.415044 24.229482 0 0 0-20.859375-13.222656 23.415044 24.229482 0 0 0-23.416015 24.228516 23.415044 24.229482 0 0 0 23.416015 24.230468 23.415044 24.229482 0 0 0 19.210938-10.39453 26.371084 28.367858 0 0 0 24.437503 17.74609 26.371084 28.367858 0 0 0 26.37109-28.36718 26.371084 28.367858 0 0 0-26.37109-28.369145z" style="fill:#ffffff"/>
   <ellipse transform="rotate(-24.043433)" cx="-97.563" cy="242.372" rx="7.046" ry="8.727"/>
   <ellipse cx="19.718" cy="256.156" rx="2.091" ry="2.203" style="fill:#474747"/>
   <ellipse cx="31.755" cy="256.972" rx="2.418" ry="2.285" style="fill:#474747"/>
   <path d="m22.751694 266.76028c8.992654 1.79863 13.572173 0.13113 16.252371-1.93864-0.707696-0.91409-1.916671-1.91665-1.916671-1.91665s3.140362 0.87264 4.24616 2.30001c1.102637 1.42324 0.409436 2.30016 0.120844 4.12124-0.642413-1.59946-1.841501-2.1993-2.003838-2.83478-2.410358 3.33197-8.415566 3.19357-16.698866 0.26882z" style="fill-rule:evenodd;fill:url(#linearGradient4351)"/>
   <g transform="matrix(-.15326305 -.52024985 .52024985 -.15326305 34.731331 266.25769)">
    <path d="m-23.364209 23.568336 3.710098 3.469175c8.346983-6.380847 17.094077-20.099374 17.094077-20.099374 1.9763149-2.2424123-0.1169199-3.7504826-2.1649066-2.3979188 0 0-12.970363 10.114866-18.639269 19.028117z" style="fill:#d17716;stroke-linecap:round;stroke-width:2.460453;stroke:#d17716"/>
    <path d="m-30.449715 32.813894 2.24632 1.93382 8.492766-7.367031 0.275061-0.705828 1.094405-0.01782c-0.4375-1.5625-2.941514-4.383455-4.816514-4.383455l0.08202 1.090075-0.669991 0.380027z" style="fill:#bdbdbd;stroke-linecap:round;stroke-width:2.460453;stroke:#bdbdbd"/>
    <path d="m-45.341208 42.769835c10.443958 0 18.370039 1.24373 19.870605-6.354738 1.209249-6.123314-7.210534-9.057368-11.38287-3.590861-4.019277 5.265971-8.487735 9.945599-8.487735 9.945599z" style="fill:#4b4b4b"/>
   </g>
  </g>
  <path d="m33.690332 233.28164v59.26667h12.985253c9.338924 0 10.055122-0.96217 10.298081-10.31695v-38.63278c0-9.35792-0.959157-10.31694-10.298081-10.31694z" style="fill:#ffffff;opacity:.1"/>
  <path d="m10.406998 262.91497v19.31639c-0.04577 9.35782 0.959156 10.31695 10.298081 10.31695h25.970506c9.338924 0 10.055122-0.96217 10.298081-10.31695v-19.31639z" style="fill:#ffffff;opacity:.2"/>
 </g>
</svg>

<svg xmlns="http://www.w3.org/2000/svg" xmlns:xlink="http://www.w3.org/1999/xlink" width="256" height="256" version="1.1" viewBox="0 0 67.73 67.73">
 <defs>
  <linearGradient id="linearGradient4226" x1="529.655" x2="-35.31" y1="401.584" y2="119.093" gradientTransform="matrix(0,-0.11988932,0.11988589,0,0.36277965,292.5483)" gradientUnits="userSpaceOnUse" xlink:href="#linearGradient4338"/>
  <linearGradient id="linearGradient4338">
   <stop offset="0" style="stop-color:#f2f2f2"/>
   <stop offset="1" style="stop-color:#f9f9f9"/>
  </linearGradient>
  <linearGradient id="linearGradient4358" x1="88" x2="488" y1="88" y2="488" gradientUnits="userSpaceOnUse" xlink:href="#linearGradient4360"/>
  <linearGradient id="linearGradient4360">
   <stop style="stop-color:#000000;stop-opacity:0.58823532" offset="0"/>
   <stop offset=".88" style="stop-color:#000000;stop-opacity:0"/>
   <stop style="stop-color:#000000" offset="1"/>
  </linearGradient>
  <filter id="filter4346" width="1.026" height="1.022" x="-.01" y="-.01" style="color-interpolation-filters:sRGB">
   <feGaussianBlur stdDeviation="2.12"/>
  </filter>
  <linearGradient id="linearGradient4351" x1="32.35" x2="21.213" y1="28.083" y2="30.293" gradientTransform="matrix(1.3344393,0,0,1.3344393,-3.3690755,227.10065)" gradientUnits="userSpaceOnUse" xlink:href="#linearGradient8534"/>
  <linearGradient id="linearGradient8534">
   <stop offset="0"/>
   <stop offset="1" style="stop-opacity:0"/>
  </linearGradient>
 </defs>
 <g transform="translate(0,-229.26665)">
  <g>
   <path style="opacity:0.2;fill:none;stroke:#000000;stroke-width:1.05833328" d="m 20.705011,233.28164 c -9.338925,0 -10.343783,0.95922 -10.298013,10.31704 v 19.31629 19.3163 c -0.04577,9.35781 0.959088,10.31704 10.298013,10.31704 h 25.970643 c 9.338924,0 10.298012,-0.95912 10.298012,-10.31704 v -19.3163 -19.31629 c 0,-9.35793 -0.959088,-10.31704 -10.298012,-10.31704 z"/>
   <path d="M 189.84323,74 C 119.24979,74 111.65402,81.250835 112,151.98706 V 298 444.01294 C 111.65402,514.74917 119.24979,522 189.84323,522 H 386.15677 C 456.75021,522 462.16345,514.72616 464,444.01294 V 298 151.98706 C 464,81.249993 456.75021,74 386.15677,74 Z" transform="matrix(0.13229167,0,0,0.13229167,-4.4096684,223.75664)" style="opacity:0.1;filter:url(#filter4346)"/>
   <path style="opacity:0.3;fill:url(#linearGradient4358);filter:url(#filter4380)" d="M 189.84323,74 C 119.24979,74 111.65402,81.250835 112,151.98706 V 298 444.01294 C 111.65402,514.74917 119.24979,522 189.84323,522 H 386.15677 C 456.75021,522 464,514.75001 464,444.01294 V 298 151.98706 C 464,81.249993 456.75021,74 386.15677,74 Z" transform="matrix(0.13229167,0,0,0.13229167,-4.4096684,223.75664)"/>
   <path d="m 20.705011,233.28164 c -9.338925,0 -10.343783,0.95922 -10.298013,10.31704 v 19.31629 19.3163 c -0.04577,9.35781 0.959088,10.31704 10.298013,10.31704 h 25.970643 c 9.338924,0 10.298012,-0.95912 10.298012,-10.31704 v -19.3163 -19.31629 c 0,-9.35793 -0.959088,-10.31704 -10.298012,-10.31704 z" style="fill:url(#linearGradient4226)"/>
   <path d="m 20.705079,233.28164 c -9.338926,0 -10.343851,0.95939 -10.298081,10.3172 v 0.52916 c -0.04577,-9.35781 0.959155,-10.3172 10.298081,-10.3172 h 25.970506 c 9.338927,0 10.298081,0.95928 10.298081,10.3172 v -0.52916 c 0,-9.35793 -0.959154,-10.3172 -10.298081,-10.3172 z" style="opacity:0.6;fill:#ffffff"/>
   <path d="m 41.098666,292.54831 15.875,-15.875 v 5.94886 c -0.01384,8.99472 -1.006126,9.92614 -10.100231,9.92614 z" style="opacity:0.4;fill:#ffffff"/>
   <g transform="matrix(0.55808669,0,0,0.55808669,14.310677,117.81711)">
    <path d="m 12.380846,240.52258 c 0,0 4.199679,9.08985 14.024561,8.83344 20.589272,-0.5419 24.199706,-11.81532 24.716248,-13.44185 0.51652,-1.62648 1.306923,-1.3801 1.489653,0.1229 6.715072,63.97564 -46.6016511,36.52631 -48.4951718,25.62997 10.5891558,-3.25302 8.1686758,-6.97326 8.1686758,-6.97326 z" style="fill:#60594c;fill-rule:evenodd"/>
    <path style="fill:#ffffff" d="M 113.9668,74.640625 A 26.371084,28.367858 0 0 0 91.177734,88.789062 23.415044,24.229482 0 0 0 70.318359,75.566406 23.415044,24.229482 0 0 0 46.902344,99.794922 23.415044,24.229482 0 0 0 70.318359,124.02539 23.415044,24.229482 0 0 0 89.529297,113.63086 26.371084,28.367858 0 0 0 113.9668,131.37695 26.371084,28.367858 0 0 0 140.33789,103.00977 26.371084,28.367858 0 0 0 113.9668,74.640625 Z" transform="matrix(0.26458333,0,0,0.26458333,0,229.26666)"/>
    <ellipse cx="-97.563" cy="242.372" rx="7.046" ry="8.727" transform="rotate(-24.043433)"/>
    <ellipse style="fill:#474747" cx="19.718" cy="256.156" rx="2.091" ry="2.203"/>
    <ellipse cx="31.755" cy="256.972" rx="2.418" ry="2.285" style="fill:#474747"/>
    <path d="m 22.751694,266.76028 c 8.992654,1.79863 13.572173,0.13113 16.252371,-1.93864 -0.707696,-0.91409 -1.916671,-1.91665 -1.916671,-1.91665 0,0 3.140362,0.87264 4.24616,2.30001 1.102637,1.42324 0.409436,2.30016 0.120844,4.12124 -0.642413,-1.59946 -1.841501,-2.1993 -2.003838,-2.83478 -2.410358,3.33197 -8.415566,3.19357 -16.698866,0.26882 z" style="fill:url(#linearGradient4351);fill-rule:evenodd"/>
    <g transform="matrix(-0.15326305,-0.52024985,0.52024985,-0.15326305,34.731331,266.25769)">
     <path d="m -23.364209,23.568336 3.710098,3.469175 C -11.307128,20.656664 -2.5600338,6.9381374 -2.5600338,6.9381374 -0.58371893,4.6957251 -2.6769537,3.1876548 -4.7249404,4.5402186 c 0,0 -12.9703626,10.1148664 -18.6392686,19.0281174 z" style="fill:#d17716;stroke:#d17716;stroke-width:2.46045303;stroke-linecap:round"/>
     <path d="m -30.449715,32.813894 2.24632,1.93382 8.492766,-7.367031 0.275061,-0.705828 1.094405,-0.01782 c -0.4375,-1.5625 -2.941514,-4.383455 -4.816514,-4.383455 l 0.08202,1.090075 -0.669991,0.380027 z" style="fill:#bdbdbd;stroke:#bdbdbd;stroke-width:2.46045303;stroke-linecap:round"/>
     <path d="m -45.341208,42.769835 c 10.443958,0 18.370039,1.24373 19.870605,-6.354738 1.209249,-6.123314 -7.210534,-9.057368 -11.38287,-3.590861 -4.019277,5.265971 -8.487735,9.945599 -8.487735,9.945599 z" style="fill:#4b4b4b"/>
    </g>
   </g>
   <path d="m 33.690332,233.28164 v 59.26667 h 12.985253 c 9.338924,0 10.055122,-0.96217 10.298081,-10.31695 v -19.31639 -19.31639 c 0,-9.35792 -0.959157,-10.31694 -10.298081,-10.31694 z" style="opacity:0.1;fill:#ffffff"/>
   <path d="m 10.406998,262.91497 v 19.31639 c -0.04577,9.35782 0.959156,10.31695 10.298081,10.31695 h 25.970506 c 9.338924,0 10.055122,-0.96217 10.298081,-10.31695 v -19.31639 z" style="opacity:0.2;fill:#ffffff"/>
  </g>
 </g>
</svg>
